X: 1
T: Heatwave, The
M: 6/8
L: 1/8
R: jig
K: Amix
|:  Ace ^gaa | a^gb aec | BgB aBg | gba gdB |
 Ace ^gaa | a^gb aef | gdB =c e=c | BdB A3 :|
|: e2f gfe | gfe a3 | fed cBA | ABc d2 f |
gfg bgd | =ce=c BAG | BgB aBg | gdB A3 :|
